app/img/about-theatre__theatre.svg

<svg width="70" height="70" viewBox="0 0 70 70" fill="none" xmlns="http://www.w3.org/2000/svg">
<path d="M68.927 33.6411V3.93562C68.927 3.36851 68.4674 2.90872 67.9001 2.90872H2.1C1.53276 2.90872 1.07311 3.36851 1.07311 3.93562V33.6412C0.435723 33.9787 0 34.648 0 35.418V37.5258C0 38.2958 0.435723 38.9654 1.07311 39.3028V66.0643C1.07311 66.6314 1.53289 67.0912 2.1 67.0912H6.7654H11.3462H11.6569H23.1602H34.9745H46.7887H58.3432H58.6027H63.2346H67.9C68.4672 67.0912 68.9269 66.6314 68.9269 66.0643V39.3028C69.5643 38.9652 70 38.2958 70 37.5258V35.418C70.0001 34.648 69.5644 33.9787 68.927 33.6411ZM66.4858 4.96265C66.0744 5.5675 65.315 6.27597 64.113 7.03094C64.0983 7.04023 64.0832 7.04939 64.0685 7.05869C63.9987 7.10217 63.9271 7.14578 63.8545 7.18953C63.8213 7.20949 63.788 7.22932 63.7544 7.24928C63.6992 7.28209 63.6424 7.3149 63.5854 7.34785C63.5395 7.37438 63.4937 7.4009 63.4466 7.42756C63.4015 7.45313 63.3549 7.47883 63.3087 7.5044C63.2513 7.53625 63.1945 7.56811 63.1356 7.6001C63.1254 7.6057 63.1146 7.61131 63.1043 7.61678C62.9556 7.69717 62.8015 7.77756 62.6434 7.85822C62.6009 7.87996 62.5592 7.90156 62.5159 7.92317C62.4553 7.95365 62.393 7.98401 62.3312 8.01449C62.2743 8.04238 62.2175 8.07041 62.1594 8.0983C62.1039 8.1251 62.0476 8.15176 61.9911 8.17856C61.919 8.21274 61.8459 8.24692 61.7718 8.2811C61.726 8.30229 61.6801 8.32348 61.6336 8.34467C61.5326 8.39074 61.4298 8.43682 61.3253 8.48289C61.3026 8.49301 61.2803 8.50299 61.2574 8.51311C60.8375 8.69713 60.3908 8.8817 59.9153 9.06614C59.9152 9.06614 59.9152 9.06627 59.9151 9.06627C59.3004 9.30471 58.644 9.54069 57.9421 9.77256C56.0422 10.4 53.9944 10.9436 51.8391 11.3995C51.8049 11.4032 51.7707 11.4083 51.7364 11.4155C49.6913 11.8434 47.5388 12.1952 45.3389 12.4613C45.3111 12.4647 45.2839 12.4704 45.2566 12.4759C41.9447 12.8709 38.4897 13.0772 35.0001 13.0772C31.5105 13.0772 28.0553 12.871 24.7434 12.4762C24.7162 12.4706 24.6891 12.4648 24.6614 12.4616C22.4605 12.1954 20.3081 11.8436 18.2639 11.4158C18.2296 11.4085 18.1954 11.4035 18.1612 11.3998C16.0058 10.9438 13.9581 10.4002 12.0582 9.77284C11.3563 9.5411 10.6998 9.30498 10.0852 9.06655C10.0851 9.06655 10.0849 9.06641 10.0849 9.06641C9.60957 8.88211 9.16291 8.69754 8.74318 8.51352C8.72008 8.5034 8.69752 8.49315 8.67455 8.48303C8.57023 8.43696 8.46769 8.39102 8.36679 8.34508C8.32031 8.32389 8.27437 8.3027 8.22857 8.28151C8.15447 8.24733 8.08146 8.21301 8.00927 8.17897C7.95281 8.15217 7.89648 8.12551 7.84097 8.09871C7.78287 8.07068 7.72613 8.04279 7.66925 8.0149C7.60732 7.98442 7.54511 7.95406 7.48455 7.92358C7.44134 7.90184 7.39951 7.88024 7.35699 7.85863C7.20058 7.77893 7.048 7.69922 6.90062 7.61965C6.88872 7.61322 6.87628 7.6068 6.86453 7.60037C6.80587 7.56865 6.74941 7.53693 6.69226 7.50508C6.64591 7.47938 6.59902 7.45354 6.55376 7.42783C6.50673 7.40117 6.46093 7.37465 6.41499 7.34813C6.35798 7.31518 6.30138 7.28236 6.24601 7.24955C6.21224 7.22959 6.17902 7.20963 6.14593 7.1898C6.0732 7.14605 6.00169 7.10244 5.93196 7.05896C5.91706 7.04967 5.90216 7.04051 5.88739 7.03121C4.68522 6.27611 3.92589 5.5675 3.5145 4.96279H66.4858V4.96265ZM3.1269 7.56893C3.44327 7.84277 3.80626 8.12168 4.21765 8.40414C5.3088 9.15911 6.76308 9.94442 8.69369 10.7286C8.69219 17.18 6.81066 24.3591 5.20052 29.3211C5.02552 29.8606 5.32083 30.4398 5.86046 30.6148C6.39913 30.7896 6.97896 30.4944 7.15423 29.955C8.74783 25.0439 10.5982 18.0067 10.738 11.494C10.9588 11.5704 11.1833 11.6468 11.4141 11.723C13.0885 12.2759 14.872 12.7662 16.7399 13.1905C14.5695 19.9248 11.0308 25.4767 8.37855 29.0141C8.03839 29.4679 8.13041 30.1116 8.58418 30.4517C8.76888 30.5902 8.98504 30.6571 9.19941 30.6571C9.51168 30.6571 9.82012 30.5152 10.0219 30.2461C12.7962 26.5458 16.5094 20.7135 18.761 13.6174C20.1754 13.8944 21.6307 14.1349 23.117 14.3379C20.9417 19.6675 16.5899 25.157 13.2013 28.9372C12.8227 29.3595 12.8582 30.0088 13.2806 30.3873C13.7031 30.766 14.3522 30.7304 14.7308 30.3082C21.049 23.2599 23.9186 17.9773 25.2219 14.5974C28.3948 14.9482 31.6837 15.1309 34.9999 15.1309C38.3165 15.1309 41.6055 14.9482 44.7785 14.5974C46.9989 20.3725 51.6693 26.2934 55.278 30.3183C55.6564 30.7405 56.3057 30.7759 56.7281 30.3973C57.1505 30.0187 57.1859 29.3695 56.8072 28.9471C53.4154 25.1644 49.0594 19.6705 46.8829 14.338C48.3693 14.1351 49.8245 13.8946 51.2389 13.6175C53.4932 20.7221 57.2125 26.5603 59.9916 30.2643C60.1934 30.5332 60.5016 30.675 60.8138 30.675C61.0284 30.675 61.2447 30.608 61.4294 30.4694C61.883 30.1289 61.9749 29.4853 61.6344 29.0316C58.9776 25.4906 55.433 19.9328 53.26 13.1904C55.1277 12.766 56.9113 12.2758 58.5857 11.7229C58.8165 11.6467 59.041 11.5703 59.2618 11.4939C59.4017 18.0032 61.2501 25.0359 62.8421 29.9437C63.0171 30.4833 63.5964 30.7783 64.1358 30.6038C64.6752 30.4288 64.9708 29.8495 64.7958 29.31C63.1873 24.3512 61.3078 17.1767 61.3063 10.7285C63.2369 9.94428 64.6912 9.15897 65.7824 8.40401C66.1937 8.12154 66.5569 7.84277 66.8731 7.56879V33.4077H61.1766C60.0682 33.4077 59.1664 34.3095 59.1664 35.4179V37.5257C59.1664 38.0719 59.3861 38.5672 59.7409 38.9299C59.1191 40.8199 58.3778 43.1923 57.6673 45.7621H12.333C11.6223 43.1923 10.8809 40.8195 10.2593 38.9299C10.614 38.5672 10.8338 38.0719 10.8338 37.5257V35.4179C10.8338 34.3095 9.93195 33.4077 8.82357 33.4077H3.1269V7.56893ZM2.05393 37.4821V35.4618H8.77982V37.4821H4.87663H2.1H2.05393ZM7.33785 64.703C7.22423 64.9093 7.00494 65.0374 6.7654 65.0374H3.1269V39.536H4.11073C7.85109 52.1993 9.05832 61.5788 7.33785 64.703ZM12.3731 65.0374V59.3692C12.3731 58.1487 13.3661 57.1557 14.5866 57.1557H19.92C21.1405 57.1557 22.1333 58.1487 22.1333 59.3692V65.0374H12.3731ZM24.1872 65.0374V59.3692C24.1872 58.1487 25.1802 57.1557 26.4007 57.1557H31.734C32.9546 57.1557 33.9475 58.1487 33.9475 59.3692V65.0374H24.1872ZM36.0015 65.0374V59.3692C36.0015 58.1487 36.9945 57.1557 38.2149 57.1557H43.5482C44.7688 57.1557 45.7616 58.1487 45.7616 59.3692V65.0374H36.0015ZM57.5758 65.0374H47.8156V59.3692C47.8156 58.1487 48.8086 57.1557 50.029 57.1557H55.3623C56.5828 57.1557 57.5758 58.1487 57.5758 59.3692V65.0374ZM59.6297 65.0373V59.3692C59.6297 57.0161 57.7154 55.1018 55.3625 55.1018H50.0292C48.7336 55.1018 47.5721 55.6828 46.7887 56.5972C46.0054 55.6828 44.8437 55.1018 43.5482 55.1018H38.2149C36.9195 55.1018 35.7578 55.6828 34.9745 56.597C34.1912 55.6828 33.0295 55.1018 31.734 55.1018H26.4007C25.1053 55.1018 23.9436 55.6828 23.1602 56.597C22.3769 55.6828 21.2152 55.1018 19.9198 55.1018H14.5866C12.2335 55.1018 10.3191 57.0161 10.3191 59.3692V65.0374H9.44182C11.5232 59.7769 8.54904 47.4247 6.25107 39.536H8.29652C9.26682 42.4829 10.5367 46.6323 11.5096 50.8458C11.6371 51.3984 12.1885 51.743 12.7413 51.6154C13.2939 51.4879 13.6384 50.9365 13.5108 50.3837C13.3118 49.5217 13.1007 48.6628 12.8823 47.8161H57.1181C56.8975 48.671 56.6844 49.5385 56.4837 50.4091C56.3563 50.9618 56.7009 51.5132 57.2537 51.6406C57.3313 51.6585 57.4089 51.6671 57.4854 51.6671C57.9529 51.6671 58.3756 51.3458 58.4853 50.8707C59.4591 46.6479 60.7315 42.489 61.7039 39.5359H63.7493C61.4514 47.4246 58.4772 59.7767 60.5586 65.0373H59.6297ZM66.8732 65.0374H63.2349C62.9953 65.0374 62.776 64.9093 62.6624 64.703C60.942 61.579 62.1492 52.1993 65.8894 39.536H66.8732V65.0374ZM67.9462 37.4821H67.9001H65.1235H61.2203V35.4618H67.9462V37.4821Z" fill="white"/>
</svg>

<svg width="70" height="70" fill="none" xmlns="http://www.w3.org/2000/svg"><path d="M68.927 33.641V3.936c0-.567-.46-1.027-1.027-1.027H2.1c-.567 0-1.027.46-1.027 1.027V33.64A2.011 2.011 0 000 35.418v2.108c0 .77.436 1.44 1.073 1.777v26.761c0 .567.46 1.027 1.027 1.027h65.8c.567 0 1.027-.46 1.027-1.027V39.303A2.011 2.011 0 0070 37.526v-2.108c0-.77-.436-1.44-1.073-1.777zM66.486 4.963c-.412.604-1.171 1.313-2.373 2.068l-.044.028a17.047 17.047 0 01-.315.19l-.169.099-.138.08-.138.076-.173.096-.032.017c-.148.08-.303.16-.46.241l-.128.065-.185.091-.172.084a23.06 23.06 0 01-.834.385l-.068.03c-.42.184-.866.369-1.342.553-.615.239-1.271.475-1.973.707A57.443 57.443 0 0151.84 11.4a1.047 1.047 0 00-.103.015c-2.045.428-4.197.78-6.397 1.046-.028.004-.055.01-.082.015A87.003 87.003 0 0135 13.077a87.05 87.05 0 01-10.257-.6c-.027-.006-.054-.012-.082-.015a75.83 75.83 0 01-6.397-1.046 1.017 1.017 0 00-.103-.016 57.48 57.48 0 01-6.103-1.627 40.953 40.953 0 01-1.973-.707 33.528 33.528 0 01-1.342-.552l-.068-.031a29.615 29.615 0 01-.666-.304l-.168-.08-.172-.084c-.062-.03-.124-.06-.184-.091l-.128-.065c-.156-.08-.309-.16-.456-.24-.012-.006-.025-.012-.036-.019-.06-.031-.116-.063-.173-.095l-.138-.077-.139-.08a18.083 18.083 0 01-.169-.098l-.1-.06a15.709 15.709 0 01-.214-.131l-.045-.028c-1.202-.755-1.961-1.463-2.372-2.068h62.97zM3.126 7.569c.317.274.68.553 1.092.835 1.09.755 2.545 1.54 4.476 2.325C8.692 17.18 6.81 24.359 5.2 29.32a1.027 1.027 0 101.953.634c1.594-4.911 3.444-11.948 3.584-18.461.22.076.445.153.676.229a58.01 58.01 0 005.326 1.467c-2.17 6.735-5.71 12.287-8.361 15.824a1.027 1.027 0 101.643 1.232c2.774-3.7 6.487-9.532 8.739-16.629 1.414.277 2.87.518 4.356.72-2.175 5.33-6.527 10.82-9.916 14.6a1.027 1.027 0 101.53 1.371c6.318-7.048 9.188-12.33 10.49-15.71 3.174.35 6.463.533 9.779.533s6.605-.183 9.779-.534c2.22 5.775 6.89 11.696 10.499 15.721a1.027 1.027 0 001.53-1.37c-3.393-3.784-7.749-9.277-9.925-14.61a76.495 76.495 0 004.356-.72c2.254 7.104 5.974 12.942 8.753 16.646a1.025 1.025 0 001.437.205c.454-.34.546-.984.205-1.437-2.656-3.541-6.201-9.1-8.374-15.842a58.058 58.058 0 005.326-1.467c.23-.076.455-.153.676-.23.14 6.51 1.988 13.543 3.58 18.45a1.027 1.027 0 001.954-.633c-1.609-4.959-3.488-12.133-3.49-18.581 1.93-.785 3.385-1.57 4.476-2.325.412-.282.775-.561 1.091-.835v25.839h-5.696c-1.109 0-2.01.901-2.01 2.01v2.108c0 .546.22 1.041.574 1.404a150.237 150.237 0 00-2.074 6.832H12.333c-.71-2.57-1.452-4.943-2.074-6.832.355-.363.575-.858.575-1.404v-2.108c0-1.108-.902-2.01-2.01-2.01H3.127V7.568zM2.055 37.482v-2.02H8.78v2.02H2.054zm5.284 27.221a.652.652 0 01-.573.334H3.127V39.536h.984c3.74 12.663 4.947 22.043 3.227 25.167zm5.035.334V59.37c0-1.22.993-2.213 2.214-2.213h5.333c1.22 0 2.213.993 2.213 2.213v5.668h-9.76zm11.814 0V59.37c0-1.22.993-2.213 2.214-2.213h5.333c1.22 0 2.213.993 2.213 2.213v5.668h-9.76zm11.814 0V59.37c0-1.22.994-2.213 2.214-2.213h5.333c1.22 0 2.214.993 2.214 2.213v5.668h-9.76zm21.575 0h-9.76V59.37c0-1.22.993-2.213 2.213-2.213h5.333c1.22 0 2.214.993 2.214 2.213v5.668zm2.054 0V59.37a4.272 4.272 0 00-4.268-4.267H50.03a4.258 4.258 0 00-3.24 1.495 4.258 4.258 0 00-3.24-1.495h-5.334a4.259 4.259 0 00-3.24 1.495 4.259 4.259 0 00-3.241-1.495h-5.333a4.259 4.259 0 00-3.24 1.495 4.259 4.259 0 00-3.241-1.495h-5.333a4.272 4.272 0 00-4.268 4.267v5.668h-.877c2.081-5.26-.893-17.612-3.19-25.501h2.045c.97 2.947 2.24 7.096 3.213 11.31a1.027 1.027 0 102-.462c-.198-.862-.41-1.721-.628-2.568h44.236c-.22.855-.434 1.722-.634 2.593a1.027 1.027 0 102.001.462c.974-4.223 2.246-8.382 3.219-11.335h2.045c-2.298 7.889-5.272 20.24-3.19 25.501h-.93zm7.243 0h-3.638a.652.652 0 01-.573-.334c-1.72-3.124-.513-12.504 3.227-25.167h.984v25.501zm1.073-27.555H61.22v-2.02h6.726v2.02z" fill="#fff"/></svg>
